; generated by Slic3r Prusa Edition 1.38.6-prusa3d-win64 on 2018-01-04 at 13:02:37

; 

; external perimeters extrusion width = 0.45mm
; perimeters extrusion width = 0.45mm
; infill extrusion width = 0.45mm
; solid infill extrusion width = 0.45mm
; top infill extrusion width = 0.40mm
; support material extrusion width = 0.35mm
; first layer extrusion width = 0.42mm

M107
M115 U3.1.0 ; tell printer latest fw version
M83  ; extruder relative mode
M104 S255 ; set extruder temp
M140 S100 ; set bed temp
M190 S100 ; wait for bed temp
M109 S255 ; wait for extruder temp
G28 W ; home all without mesh bed level
G80 ; mesh bed leveling
G1 Y-3.0 F1000.0 ; go outside pritn area
G1 X60.0 E9.0  F1000.0 ; intro line
G1 X100.0 E12.5  F1000.0 ; intro line
M900 K30; Filament gcode
G21 ; set units to millimeters
G90 ; use absolute coordinates
M83 ; use relative distances for extrusion
;BEFORE_LAYER_CHANGE
;0.2


G1 E-0.80000 F2100.00000
G1 Z0.200 F15000.000
;AFTER_LAYER_CHANGE
;0.2
G1 X99.586 Y79.813 F15000.000
G1 E0.80000 F2100.00000
M204 S1000
G1 F1800
G1 X100.348 Y79.318 E0.02849
G1 X101.240 Y79.145 E0.02849
G1 X150.300 Y79.315 E1.53825
G1 X151.224 Y79.520 E0.02966
G1 X151.994 Y80.069 E0.02966
G1 X152.464 Y80.807 E0.02743
G1 X152.635 Y81.661 E0.02731
G1 X152.635 Y131.630 E1.56674
G1 X152.438 Y132.574 E0.03024
G1 X151.882 Y133.362 E0.03024
G1 X151.154 Y133.828 E0.02708
G1 X150.308 Y134.003 E0.02708
G1 X121.482 Y134.000 E0.90384
G1 X100.894 Y131.502 E0.65026
G1 X100.133 Y131.254 E0.02508
G1 X99.500 Y130.772 E0.02496
G1 X99.032 Y130.037 E0.02731
G1 X98.861 Y129.183 E0.02731
G1 X98.862 Y81.442 E1.49686
G1 X99.065 Y80.557 E0.02849
G1 X99.552 Y79.862 E0.02661
G1 F12000
G1 X100.348 Y79.318 E-0.16033
G1 F12000
G1 X101.240 Y79.145 E-0.15104
G1 F12000
G1 X103.939 Y79.155 E-0.44862
G1 E-0.04000 F2100.00000
G1 X101.238 Y81.522 F15000.000
G1 E0.80000 F2100.00000
G1 F1800
G1 X101.238 Y129.149 E1.49331
G1 X101.992 Y129.149 E0.02365
G1 X101.992 Y81.692 E1.48799
G1 X102.746 Y81.692 E0.02365
G1 X102.746 Y129.319 E1.49331
G1 X109.533 Y129.319 F15000.000
G1 F1800
G1 X109.533 Y128.426 E0.02800
G1 X109.273 Y128.109 E0.01287
G1 X108.779 Y128.109 E0.01548
G1 X108.779 Y129.149 E0.03264
G1 X108.025 Y129.149 E0.02365
G1 X108.025 Y128.109 E0.03264
G1 X107.271 Y128.101 E0.02365
G1 X107.271 Y129.149 E0.03286
G1 X106.517 Y129.149 E0.02365
G1 X106.517 Y127.997 E0.03614
G1 X106.074 Y127.874 E0.01440
G1 X105.762 Y127.755 E0.01045
G1 X105.762 Y129.149 E0.04371
G1 X105.008 Y129.149 E0.02365
G1 X105.008 Y127.347 E0.05651
G1 X104.566 Y127.007 E0.01749
G1 X104.254 Y126.704 E0.01364
G1 X104.254 Y129.149 E0.07669
G1 X103.500 Y129.149 E0.02365
G1 X103.500 Y81.692 E1.48799
G1 X104.254 Y81.692 E0.02365
G1 X104.254 Y83.296 E0.05030
G1 X104.566 Y82.993 E0.01365
G1 X105.008 Y82.653 E0.01749
G1 X105.008 Y81.692 E0.03013
G1 X105.762 Y81.692 E0.02365
G1 X105.762 Y82.245 E0.01733
G1 X106.074 Y82.126 E0.01045
G1 X106.517 Y82.003 E0.01440
G1 X106.517 Y81.692 E0.00976
G1 X107.271 Y81.692 E0.02365
G1 X107.271 Y82.069 E0.01180
G1 F12000
G1 X107.271 Y81.692 E-0.06257
G1 F12000
G1 X106.517 Y81.692 E-0.12538
G1 F12000
G1 X106.517 Y82.003 E-0.05174
G1 F12000
G1 X106.074 Y82.126 E-0.07636
G1 F12000
G1 X105.762 Y82.245 E-0.05543
G1 F12000
G1 X105.762 Y81.692 E-0.09188
G1 F12000
G1 X105.008 Y81.692 E-0.12538
G1 F12000
G1 X105.008 Y82.653 E-0.15975
G1 F12000
G1 X104.953 Y82.695 E-0.01151
G1 E-0.04000 F2100.00000
G1 X104.254 Y85.039 F15000.000
G1 E0.80000 F2100.00000
G1 F1800
G1 X104.254 Y124.791 E1.24642
G1 X105.008 Y124.791 E0.02365
G1 X105.008 Y85.209 E1.24109
G1 X105.762 Y85.209 E0.02365
G1 X105.762 Y124.791 E1.24109
G1 X106.517 Y124.791 E0.02365
G1 X106.517 Y85.209 E1.24109
G1 X107.271 Y85.209 E0.02365
G1 X107.271 Y124.791 E1.24109
G1 X108.025 Y124.791 E0.02365
G1 X108.025 Y85.209 E1.24109
G1 X108.779 Y85.209 E0.02365
G1 X108.779 Y124.961 E1.24642
G1 X109.533 Y111.514 F15000.000
G1 F1800
G1 X109.533 Y124.791 E0.41629
G1 X110.287 Y124.791 E0.02365
G1 X110.287 Y111.684 E0.41097
G1 X111.042 Y111.684 E0.02365
G1 X111.042 Y124.791 E0.41097
G1 X111.079 Y124.791 E0.00118
G1 X111.079 Y122.228 E0.08037
G1 X111.796 Y122.228 E0.02247
G1 X111.796 Y111.684 E0.33060
G1 X112.550 Y111.684 E0.02365
G1 X112.550 Y122.228 E0.33060
G1 X113.304 Y122.228 E0.02365
G1 X113.304 Y111.684 E0.33060
G1 X114.058 Y111.684 E0.02365
G1 X114.058 Y122.228 E0.33060
G1 X114.812 Y122.228 E0.02365
G1 X114.812 Y111.684 E0.33060
G1 X115.567 Y111.684 E0.02365
G1 X115.567 Y122.228 E0.33060
G1 X116.321 Y122.228 E0.02365
G1 X116.321 Y111.684 E0.33060
G1 X117.075 Y111.684 E0.02365
G1 X117.075 Y122.228 E0.33060
G1 X117.829 Y122.228 E0.02365
G1 X117.829 Y111.684 E0.33060
G1 X118.583 Y111.684 E0.02365
G1 X118.583 Y122.228 E0.33060
G1 X119.337 Y122.228 E0.02365
G1 X119.337 Y111.684 E0.33060
G1 X120.091 Y111.684 E0.02365
G1 X120.091 Y122.228 E0.33060
G1 X120.846 Y122.228 E0.02365
G1 X120.846 Y111.684 E0.33060
G1 X121.600 Y111.684 E0.02365
G1 X121.600 Y124.791 E0.41097
G1 X122.354 Y124.791 E0.02365
G1 X122.354 Y111.684 E0.41097
G1 X123.108 Y111.684 E0.02365
G1 X123.108 Y124.791 E0.41097
G1 X123.862 Y124.791 E0.02365
G1 X123.862 Y111.684 E0.41097
G1 X124.616 Y111.684 E0.02365
G1 X124.616 Y124.791 E0.41097
G1 X125.371 Y124.791 E0.02365
G1 X125.371 Y111.684 E0.41097
G1 X126.125 Y111.684 E0.02365
G1 X126.125 Y131.456 E0.61995
G1 X126.879 Y131.456 E0.02365
G1 X126.879 Y111.684 E0.61995
G1 X127.633 Y111.684 E0.02365
G1 X127.633 Y131.456 E0.61995
G1 X128.387 Y131.456 E0.02365
G1 X128.387 Y111.684 E0.61995
G1 X129.141 Y111.684 E0.02365
G1 X129.141 Y131.456 E0.61995
G1 X129.896 Y131.456 E0.02365
G1 X129.896 Y111.684 E0.61995
G1 X130.650 Y111.684 E0.02365
G1 X130.650 Y131.456 E0.61995
G1 X131.404 Y131.456 E0.02365
G1 X131.404 Y111.684 E0.61995
G1 X132.158 Y111.684 E0.02365
G1 X132.158 Y131.456 E0.61995
G1 X132.912 Y131.456 E0.02365
G1 X132.912 Y111.684 E0.61995
G1 X133.666 Y111.684 E0.02365
G1 X133.666 Y131.456 E0.61995
G1 X134.421 Y131.456 E0.02365
G1 X134.421 Y111.684 E0.61995
G1 X135.175 Y111.684 E0.02365
G1 X135.175 Y131.456 E0.61995
G1 X135.929 Y131.456 E0.02365
G1 X135.929 Y111.684 E0.61995
G1 X136.683 Y111.684 E0.02365
G1 X136.683 Y131.626 E0.62527
G1 X141.962 Y131.626 F15000.000
G1 F1800
G1 X141.962 Y85.209 E1.45539
G1 X141.208 Y85.209 E0.02365
G1 X141.208 Y131.456 E1.45007
G1 X140.454 Y131.456 E0.02365
G1 X140.454 Y85.209 E1.45007
G1 X139.700 Y85.209 E0.02365
G1 X139.700 Y131.456 E1.45007
G1 X138.945 Y131.456 E0.02365
G1 X138.945 Y85.209 E1.45007
G1 X138.191 Y85.209 E0.02365
G1 X138.191 Y131.456 E1.45007
G1 X137.437 Y131.456 E0.02365
G1 X137.437 Y85.209 E1.45007
G1 X136.683 Y85.209 E0.02365
G1 X136.683 Y101.464 E0.50969
G1 X135.929 Y101.464 E0.02365
G1 X135.929 Y85.209 E0.50969
G1 X135.175 Y85.209 E0.02365
G1 X135.175 Y101.464 E0.50969
G1 X135.141 Y101.464 E0.00105
G1 X135.141 Y96.850 E0.14467
G1 X134.421 Y96.850 E0.02260
G1 X134.421 Y85.209 E0.36502
G1 X133.666 Y85.209 E0.02365
G1 X133.666 Y96.850 E0.36502
G1 X132.912 Y96.850 E0.02365
G1 X132.912 Y85.209 E0.36502
G1 X132.158 Y85.209 E0.02365
G1 X132.158 Y94.543 E0.29268
G1 X131.404 Y94.543 E0.02365
G1 X131.404 Y85.209 E0.29268
G1 X130.650 Y85.209 E0.02365
G1 X130.650 Y94.543 E0.29268
G1 X130.527 Y94.543 E0.00385
G1 X130.527 Y92.236 E0.07234
G1 X129.896 Y92.236 E0.01980
G1 X129.896 Y85.209 E0.22035
G1 X129.141 Y85.209 E0.02365
G1 X129.141 Y92.236 E0.22035
G1 X128.387 Y92.236 E0.02365
G1 X128.387 Y85.209 E0.22035
G1 X127.633 Y85.209 E0.02365
G1 X127.633 Y92.236 E0.22035
G1 X126.879 Y92.236 E0.02365
G1 X126.879 Y85.209 E0.22035
G1 X126.125 Y85.209 E0.02365
G1 X126.125 Y92.236 E0.22035
G1 X125.371 Y92.236 E0.02365
G1 X125.371 Y85.209 E0.22035
G1 X124.616 Y85.209 E0.02365
G1 X124.616 Y92.236 E0.22035
G1 X123.862 Y92.236 E0.02365
G1 X123.862 Y85.209 E0.22035
G1 X123.108 Y85.209 E0.02365
G1 X123.108 Y89.929 E0.14801
G1 X122.614 Y89.929 E0.01548
G1 X122.614 Y92.236 E0.07234
G1 X122.354 Y92.236 E0.00817
G1 X122.354 Y85.209 E0.22035
G1 X121.600 Y85.209 E0.02365
G1 X121.600 Y92.236 E0.22035
G1 X120.846 Y92.236 E0.02365
G1 X120.846 Y85.209 E0.22035
G1 X120.091 Y85.209 E0.02365
G1 X120.091 Y92.236 E0.22035
G1 X119.337 Y92.236 E0.02365
G1 X119.337 Y85.209 E0.22035
G1 X118.583 Y85.209 E0.02365
G1 X118.583 Y92.236 E0.22035
G1 X118.000 Y92.236 E0.01828
G1 X118.000 Y94.543 E0.07234
G1 X117.829 Y94.543 E0.00537
G1 X117.829 Y85.209 E0.29268
G1 X117.075 Y85.209 E0.02365
G1 X117.075 Y94.543 E0.29268
G1 X116.321 Y94.543 E0.02365
G1 X116.321 Y85.209 E0.29268
G1 X115.567 Y85.209 E0.02365
G1 X115.567 Y94.543 E0.29268
G1 X114.812 Y94.543 E0.02365
G1 X114.812 Y85.209 E0.29268
G1 X114.058 Y85.209 E0.02365
G1 X114.058 Y94.543 E0.29268
G1 X113.386 Y94.543 E0.02107
G1 X113.386 Y99.157 E0.14467
G1 X113.304 Y99.157 E0.00257
G1 X113.304 Y85.209 E0.43736
G1 X112.550 Y85.209 E0.02365
G1 X112.550 Y99.157 E0.43736
G1 X111.796 Y99.157 E0.02365
G1 X111.796 Y85.209 E0.43736
G1 X111.042 Y85.209 E0.02365
G1 X111.042 Y101.464 E0.50969
G1 X110.287 Y101.464 E0.02365
G1 X110.287 Y85.209 E0.50969
G1 X109.533 Y85.209 E0.02365
G1 X109.533 Y101.634 E0.51501
G1 F12000
G1 X109.533 Y97.063 E-0.76000
G1 E-0.04000 F2100.00000
G1 X121.600 Y131.626 F15000.000
G1 E0.80000 F2100.00000
G1 F1800
G1 X121.600 Y128.109 E0.11029
G1 X122.354 Y128.109 E0.02365
G1 X122.354 Y131.456 E0.10497
G1 X123.108 Y131.456 E0.02365
G1 X123.108 Y128.109 E0.10497
G1 X123.862 Y128.109 E0.02365
G1 X123.862 Y131.456 E0.10497
G1 X124.616 Y131.456 E0.02365
G1 X124.616 Y128.109 E0.10497
G1 X125.371 Y128.109 E0.02365
G1 X125.371 Y131.626 E0.11029
G1 X150.258 Y131.626 F15000.000
G1 F1800
G1 X150.258 Y81.692 E1.56565
G1 X149.504 Y81.692 E0.02365
G1 X149.504 Y131.456 E1.56033
G1 X148.750 Y131.456 E0.02365
G1 X148.750 Y81.692 E1.56033
G1 X147.995 Y81.692 E0.02365
G1 X147.995 Y131.456 E1.56033
G1 X147.241 Y131.456 E0.02365
G1 X147.241 Y81.692 E1.56033
G1 X146.487 Y81.692 E0.02365
G1 X146.487 Y131.456 E1.56033
G1 X145.733 Y131.456 E0.02365
G1 X145.733 Y81.692 E1.56033
G1 X144.979 Y81.692 E0.02365
G1 X144.979 Y131.456 E1.56033
G1 X144.225 Y131.456 E0.02365
G1 X144.225 Y81.692 E1.56033
G1 X143.470 Y81.692 E0.02365
G1 X143.470 Y131.456 E1.56033
G1 X142.716 Y131.456 E0.02365
G1 X142.716 Y81.692 E1.56033
G1 X141.962 Y81.692 E0.02365
G1 X141.962 Y81.891 E0.00625
G1 X141.208 Y81.891 E0.02365
G1 X141.208 Y81.692 E0.00625
G1 X140.454 Y81.692 E0.02365
G1 X140.454 Y82.061 E0.01157
G1 F12000
G1 X140.454 Y81.692 E-0.06135
G1 F12000
G1 X141.208 Y81.692 E-0.12538
G1 F12000
G1 X141.208 Y81.891 E-0.03314
G1 F12000
G1 X141.962 Y81.891 E-0.12538
G1 F12000
G1 X141.962 Y81.692 E-0.03314
G1 F12000
G1 X142.716 Y81.692 E-0.12538
G1 F12000
G1 X142.716 Y83.233 E-0.25624
G1 E-0.04000 F2100.00000
G1 X124.536 Y126.214 F15000.000
G1 E0.80000 F2100.00000
G1 F1800
G1 X124.536 Y126.686 E0.01479
G1 X107.532 Y126.686 E0.53316
G1 X107.104 Y126.658 E0.01343
G1 X106.715 Y126.580 E0.01244
G1 X106.339 Y126.453 E0.01244
G1 X105.889 Y126.214 E0.01598
G1 X124.476 Y126.214 E0.58279
G1 X124.913 Y125.837 F15000.000
G1 F1800
G1 X124.913 Y127.063 E0.03844
G1 X107.519 Y127.063 E0.54537
G1 X107.055 Y127.032 E0.01460
G1 X106.617 Y126.945 E0.01399
G1 X106.194 Y126.802 E0.01399
G1 X105.794 Y126.605 E0.01399
G1 X105.423 Y126.357 E0.01399
G1 X105.088 Y126.062 E0.01399
G1 X104.890 Y125.837 E0.00940
G1 X124.853 Y125.837 E0.62592
G1 X125.290 Y125.460 F15000.000
G1 F1800
G1 X125.290 Y127.440 E0.06208
G1 X107.507 Y127.440 E0.55758
G1 X107.005 Y127.407 E0.01576
G1 X106.519 Y127.310 E0.01554
G1 X106.050 Y127.151 E0.01554
G1 X105.605 Y126.932 E0.01554
G1 X105.193 Y126.656 E0.01554
G1 X104.820 Y126.330 E0.01554
G1 X104.494 Y125.957 E0.01554
G1 X104.176 Y125.460 E0.01849
G1 X125.230 Y125.460 E0.66014
G1 X125.093 Y125.808 F15000.000
G1 F12000
G1 X125.290 Y127.440 E-0.32933
G1 F12000
G1 X122.699 Y127.440 E-0.43067
G1 E-0.04000 F2100.00000
G1 X124.347 Y126.450 F15000.000
G1 E0.80000 F2100.00000
G1 F1800
G1 X107.539 Y126.450 E0.07224
G1 X107.019 Y126.425 E0.00224
G1 F12000
G1 X107.539 Y126.450 E-0.08666
G1 F12000
G1 X111.589 Y126.450 E-0.67334
G1 E-0.04000 F2100.00000
G1 X105.887 Y83.786 F15000.000
G1 E0.80000 F2100.00000
G1 F1800
G1 X106.158 Y83.629 E0.00983
G1 X106.699 Y83.423 E0.01816
G1 X107.104 Y83.342 E0.01294
G1 X107.532 Y83.314 E0.01343
G1 X141.300 Y83.314 E1.05878
G1 X141.300 Y83.786 E0.01479
G1 X105.947 Y83.786 E1.10848
G1 F12000
G1 X106.158 Y83.629 E-0.04377
G1 F12000
G1 X106.699 Y83.423 E-0.09629
G1 F12000
G1 X107.104 Y83.342 E-0.06860
G1 F12000
G1 X107.532 Y83.314 E-0.07123
G1 F12000
G1 X110.419 Y83.314 E-0.48011
G1 E-0.04000 F2100.00000
G1 X104.887 Y84.163 F15000.000
G1 E0.80000 F2100.00000
G1 F1800
G1 X105.251 Y83.785 E0.01644
G1 X105.605 Y83.513 E0.01399
G1 X105.991 Y83.290 E0.01399
G1 X106.412 Y83.116 E0.01429
G1 X106.608 Y83.056 E0.00640
G1 X107.055 Y82.968 E0.01429
G1 X107.519 Y82.937 E0.01460
G1 X141.677 Y82.937 E1.07099
G1 X141.677 Y84.163 E0.03844
G1 X104.947 Y84.163 E1.15164
G1 X104.176 Y84.540 F15000.000
G1 F1800
G1 X104.347 Y84.247 E0.01063
G1 X104.651 Y83.851 E0.01565
G1 X105.001 Y83.501 E0.01554
G1 X105.395 Y83.199 E0.01554
G1 X105.824 Y82.951 E0.01554
G1 X106.285 Y82.760 E0.01565
G1 X106.516 Y82.690 E0.00756
G1 X107.005 Y82.593 E0.01565
G1 X107.507 Y82.560 E0.01576
G1 X142.054 Y82.560 E1.08320
G1 X142.054 Y84.540 E0.06208
G1 X104.236 Y84.540 E1.18577
G1 X104.433 Y84.319 F15000.000
G1 F12000
G1 X104.347 Y84.247 E-0.05205
G1 F12000
G1 X104.651 Y83.851 E-0.08298
G1 F12000
G1 X105.001 Y83.501 E-0.08241
G1 F12000
G1 X105.395 Y83.199 E-0.08241
G1 F12000
G1 X105.824 Y82.951 E-0.08240
G1 F12000
G1 X106.285 Y82.760 E-0.08298
G1 F12000
G1 X106.516 Y82.690 E-0.04009
G1 F12000
G1 X107.005 Y82.593 E-0.08299
G1 F12000
G1 X107.507 Y82.560 E-0.08355
G1 F12000
G1 X108.037 Y82.560 E-0.08813
G1 E-0.04000 F2100.00000
G1 X107.019 Y83.575 F15000.000
G1 E0.80000 F2100.00000
G1 F1800
G1 X107.539 Y83.550 E0.00224
G1 X141.111 Y83.550 E0.14428
;BEFORE_LAYER_CHANGE
;0.4


G1 F12000
G1 X136.540 Y83.550 E-0.76000
G1 E-0.04000 F2100.00000
G1 Z0.400 F15000.000
;AFTER_LAYER_CHANGE
;0.4
G1 X151.224 Y79.520 F15000.000
G1 E0.80000 F2100.00000
G1 F3000
G1 X151.994 Y80.069 E0.02966
G1 X152.464 Y80.807 E0.02743
G1 X152.635 Y81.661 E0.02731
G1 X152.635 Y131.630 E1.56674
G1 X152.438 Y132.574 E0.03024
G1 X151.882 Y133.362 E0.03024
G1 X151.154 Y133.828 E0.02708
G1 X150.308 Y134.003 E0.02708
G1 X121.482 Y134.000 E0.90384
G1 X100.894 Y131.502 E0.65026
G1 X100.133 Y131.254 E0.02508
G1 X99.500 Y130.772 E0.02496
G1 X99.032 Y130.037 E0.02731
G1 X98.861 Y129.183 E0.02731
G1 X98.862 Y81.442 E1.49686
G1 X99.065 Y80.557 E0.02849
G1 X99.586 Y79.813 E0.02849
G1 X100.348 Y79.318 E0.02849
G1 X101.240 Y79.145 E0.02849
G1 X150.300 Y79.315 E1.53825
G1 X151.165 Y79.507 E0.02778
G1 F12000
G1 X151.994 Y80.069 E-0.16649
G1 F12000
G1 X152.464 Y80.807 E-0.14545
G1 F12000
G1 X152.635 Y81.661 E-0.14482
G1 F12000
G1 X152.635 Y83.485 E-0.30324
G1 E-0.04000 F2100.00000
G1 X124.461 Y126.289 F15000.000
G1 E0.80000 F2100.00000
M204 S800
G1 F1200
G1 X124.461 Y126.611 E0.01089
G1 X107.534 Y126.611 E0.57295
G1 X107.114 Y126.583 E0.01425
G1 X106.734 Y126.508 E0.01310
G1 X106.368 Y126.383 E0.01310
G1 X106.177 Y126.289 E0.00721
G1 X124.401 Y126.289 E0.61687
M204 S1000
G1 X124.868 Y125.882 F15000.000
M204 S800
G1 F3600
G1 X124.868 Y127.018 E0.03845
G1 X107.521 Y127.018 E0.58718
G1 X107.061 Y126.988 E0.01561
G1 X106.629 Y126.902 E0.01491
G1 X106.212 Y126.760 E0.01491
G1 X105.817 Y126.566 E0.01491
G1 X105.451 Y126.321 E0.01490
G1 X105.120 Y126.030 E0.01491
G1 X104.989 Y125.882 E0.00668
G1 X124.808 Y125.882 E0.67084
M204 S1000
G1 X125.275 Y125.475 F15000.000
M204 S800
G1 F2400
G1 X125.275 Y127.425 E0.06601
G1 X107.507 Y127.425 E0.60141
G1 X107.007 Y127.392 E0.01696
G1 X106.523 Y127.296 E0.01671
G1 X106.056 Y127.137 E0.01671
G1 X105.613 Y126.919 E0.01671
G1 X105.202 Y126.645 E0.01671
G1 X104.831 Y126.319 E0.01671
G1 X104.505 Y125.948 E0.01671
G1 X104.200 Y125.475 E0.01905
G1 X125.215 Y125.475 E0.71133
M204 S1000
G1 X125.078 Y125.823 F15000.000
G1 F12000
G1 X125.275 Y127.425 E-0.32434
G1 F12000
G1 X122.655 Y127.425 E-0.43566
G1 E-0.04000 F2100.00000
G1 X141.425 Y83.711 F15000.000
