; generated by Slic3r Prusa Edition 1.41.0+win64 on 2018-09-10 at 22:32:40

; 

; external perimeters extrusion width = 0.45mm
; perimeters extrusion width = 0.45mm
; infill extrusion width = 0.48mm
; solid infill extrusion width = 0.42mm
; top infill extrusion width = 0.40mm
; first layer extrusion width = 0.48mm

M201 X1000 Y1000 Z1000 E5000 ; sets maximum accelerations, mm/sec^2
M203 X200 Y200 Z12 E120 ; sets maximum feedrates, mm/sec
M204 P1250 R1250 T1250 ; sets acceleration (P, T) and retract acceleration (R), mm/sec^2
M205 X6.00 Y6.00 Z0.40 E1.00 ; sets the jerk limits, mm/sec
M205 S0 T0 ; sets the minimum extruding and travel feed rate, mm/sec
M107
M83  ; extruder relative mode
M140 S70 ; set bed temp
M109 S160 ; Set extruder temp before bed level
M190 S70 ; wait for bed temp

G28 W ; home all without mesh bed level
G80 ; mesh bed leveling

M109 S230 ; wait for extruder temp

G1 Y-3.0 F1000.0 ; go outside print area
G92 E0.0
G1 E8 ; Purge Bubble
M73 Q0 S83
M73 P0 R82
G1 X60.0 E9.0  F1000.0 ; intro line
G1 X100.0 E12.5  F1000.0 ; intro line
G92 E0.0
M900 K45
G21 ; set units to millimeters
G90 ; use absolute coordinates
M83 ; use relative distances for extrusion
;BEFORE_LAYER_CHANGE
G92 E0.0
;0.2

G1 E-0.80000 F2100.00000
G1 Z0.600 F9000.000
;AFTER_LAYER_CHANGE

G1 X99.576 Y86.419
G1 Z0.200
G1 E0.80000 F1500.00000
M204 S1000
G1 F1200
G1 X100.673 Y85.168 E0.06047
G1 X101.422 Y84.561 E0.03506
G1 X102.330 Y83.994 E0.03887
G1 X104.055 Y83.246 E0.06834
G1 X106.356 Y82.659 E0.08629
G1 X110.191 Y82.179 E0.14048
G1 X113.594 Y81.882 E0.12416
G1 X148.700 Y81.872 E1.27587
G1 X153.830 Y82.331 E0.18719
G1 X156.487 Y82.730 E0.09765
G1 X157.808 Y83.051 E0.04938
G1 X158.891 Y83.413 E0.04150
G1 X159.836 Y83.827 E0.03751
G1 X160.771 Y84.362 E0.03915
G1 X161.606 Y84.986 E0.03788
G1 X162.407 Y85.779 E0.04098
G1 X163.077 Y86.676 E0.04068
G1 X163.625 Y87.710 E0.04252
G1 X164.005 Y88.802 E0.04204
G1 X164.208 Y89.763 E0.03568
G1 X164.318 Y90.931 E0.04266
G1 X164.276 Y92.476 E0.05616
G1 X164.074 Y93.961 E0.05446
G1 X163.724 Y95.517 E0.05799
G1 X162.660 Y98.746 E0.12353
G1 X161.002 Y102.520 E0.14981
G1 X158.886 Y106.569 E0.16604
G1 X155.723 Y111.918 E0.22587
G1 X151.946 Y117.743 E0.25228
G1 X145.618 Y126.783 E0.40105
G1 X145.295 Y127.139 E0.01748
G1 X144.902 Y127.417 E0.01748
G1 X144.387 Y127.623 E0.02014
G1 X143.834 Y127.696 E0.02027
G1 X118.648 Y127.696 E0.91535
G1 X117.878 Y127.554 E0.02847
G1 X117.185 Y127.136 E0.02939
G1 X98.847 Y110.626 E0.89678
G1 X98.231 Y109.864 E0.03559
G1 X97.992 Y109.310 E0.02193
G1 X97.875 Y108.723 E0.02176
G1 X97.864 Y105.070 E0.13277
G1 X98.164 Y91.000 E0.51145
G1 X98.290 Y89.670 E0.04855
G1 X98.759 Y87.951 E0.06477
G1 X99.548 Y86.472 E0.06093
; PURGING FINISHED
G1 F7200
G1 X100.673 Y85.168 E-0.47723
G1 X101.422 Y84.561 E-0.26730
G1 X101.470 Y84.531 E-0.01547
G1 E-0.04000 F2100.00000
G1 Z0.800 F9000.000
G1 X108.640 Y107.063
G1 Z0.200
G1 E0.80000 F1500.00000
G1 F1200
G1 X101.997 Y107.063 E0.24146
G1 X101.997 Y106.491 E0.02078
G1 X108.268 Y106.491 E0.22792
G1 X106.330 Y102.941 E0.14700
G1 X105.327 Y100.977 E0.08016
G1 X104.513 Y99.245 E0.06956
G1 X103.811 Y97.591 E0.06530
G1 X103.264 Y96.122 E0.05695
G1 X102.856 Y94.827 E0.04936
G1 X102.548 Y93.584 E0.04655
G1 X102.423 Y92.910 E0.02491
G1 X102.342 Y92.292 E0.02262
G1 X102.292 Y91.382 E0.03313
G1 X102.334 Y90.594 E0.02869
G1 X102.400 Y90.170 E0.01557
G1 X102.572 Y89.553 E0.02331
G1 X102.707 Y89.232 E0.01266
G1 X102.863 Y88.944 E0.01189
G1 X103.069 Y88.643 E0.01328
G1 X103.272 Y88.404 E0.01137
G1 X103.500 Y88.183 E0.01156
G1 X103.794 Y87.947 E0.01368
G1 X104.077 Y87.757 E0.01238
G1 X104.436 Y87.555 E0.01498
G1 X104.737 Y87.412 E0.01210
G1 X105.155 Y87.241 E0.01641
G1 X105.595 Y87.091 E0.01694
G1 X106.058 Y86.958 E0.01748
G1 X106.776 Y86.795 E0.02678
G1 X106.962 Y86.847 E0.00700
G1 X107.471 Y86.940 E0.01882
G1 X107.958 Y86.985 E0.01777
G1 X108.438 Y86.989 E0.01742
G1 X108.937 Y86.950 E0.01821
G1 X109.458 Y86.861 E0.01920
G1 X109.913 Y86.743 E0.01708
G1 X110.384 Y86.576 E0.01816
G1 X110.846 Y86.365 E0.01847
G1 X111.044 Y86.252 E0.00827
G1 X112.622 Y86.114 E0.05757
G1 X113.057 Y91.090 E0.18155
G1 X113.337 Y92.038 E0.03591
G1 X113.623 Y92.860 E0.03166
G1 X113.960 Y93.700 E0.03289
G1 X114.322 Y94.492 E0.03165
G1 X114.721 Y95.267 E0.03166
G1 X115.137 Y95.992 E0.03039
G1 X115.624 Y96.757 E0.03295
G1 X116.148 Y97.500 E0.03302
G1 X116.685 Y98.188 E0.03175
G1 X117.278 Y98.877 E0.03302
G1 X117.878 Y99.512 E0.03175
G1 X118.526 Y100.136 E0.03271
G1 X119.176 Y100.705 E0.03139
G1 X119.829 Y101.227 E0.03039
G1 X120.550 Y101.751 E0.03239
G1 X121.327 Y102.260 E0.03375
G1 X122.088 Y102.708 E0.03209
G1 X122.868 Y103.119 E0.03205
G1 X123.667 Y103.493 E0.03204
G1 X124.483 Y103.830 E0.03211
G1 X125.387 Y104.150 E0.03485
G1 X126.134 Y104.379 E0.02837
G1 X126.975 Y104.595 E0.03156
G1 X127.826 Y104.773 E0.03161
G1 X128.771 Y104.923 E0.03477
G1 X129.636 Y105.017 E0.03162
G1 X130.505 Y105.072 E0.03164
G1 X131.461 Y105.084 E0.03473
G1 X132.242 Y105.059 E0.02843
G1 X133.196 Y104.984 E0.03476
G1 X134.059 Y104.874 E0.03161
G1 X134.914 Y104.724 E0.03157
G1 X135.676 Y104.554 E0.02837
G1 X136.598 Y104.307 E0.03470
G1 X137.451 Y104.032 E0.03257
G1 X138.282 Y103.719 E0.03227
G1 X139.073 Y103.378 E0.03132
G1 X139.906 Y102.972 E0.03366
G1 X140.680 Y102.547 E0.03208
G1 X141.432 Y102.086 E0.03206
G1 X142.162 Y101.591 E0.03206
G1 X142.868 Y101.062 E0.03207
G1 X143.549 Y100.501 E0.03207
G1 X144.203 Y99.908 E0.03206
G1 X144.819 Y99.294 E0.03162
G1 X145.428 Y98.628 E0.03280
G1 X145.984 Y97.959 E0.03161
G1 X146.508 Y97.265 E0.03160
G1 X147.017 Y96.521 E0.03277
G1 X147.473 Y95.780 E0.03161
G1 X147.910 Y94.992 E0.03275
G1 X148.295 Y94.213 E0.03157
G1 X148.642 Y93.418 E0.03155
G1 X148.964 Y92.578 E0.03269
G1 X149.277 Y91.626 E0.03640
G1 X149.760 Y86.105 E0.20143
G1 X152.161 Y86.316 E0.08760
G1 X153.881 Y86.496 E0.06286
G1 X155.155 Y86.684 E0.04680
G1 X155.904 Y86.831 E0.02774
G1 X156.718 Y87.040 E0.03053
G1 X157.320 Y87.238 E0.02304
G1 X157.595 Y87.346 E0.01075
G1 X158.212 Y87.644 E0.02489
G1 X158.689 Y87.947 E0.02053
G1 X159.111 Y88.302 E0.02006
G1 X159.437 Y88.671 E0.01789
G1 X159.584 Y88.883 E0.00935
G1 X159.832 Y89.353 E0.01935
G1 X159.955 Y89.679 E0.01263
G1 X160.107 Y90.297 E0.02314
G1 X160.156 Y90.643 E0.01270
G1 X160.193 Y91.425 E0.02847
G1 X160.135 Y92.358 E0.03397
G1 X160.064 Y92.887 E0.01942
G1 X159.832 Y94.048 E0.04303
G1 X159.484 Y95.313 E0.04766
G1 X158.984 Y96.783 E0.05645
G1 X158.512 Y97.988 E0.04701
G1 X157.779 Y99.667 E0.06661
G1 X157.101 Y101.090 E0.05728
G1 X156.097 Y103.048 E0.07996
G1 X155.198 Y104.697 E0.06827
G1 X153.901 Y106.954 E0.09460
G1 X152.756 Y108.857 E0.08070
G1 X151.140 Y111.438 E0.11066
G1 X149.739 Y113.598 E0.09360
G1 X148.220 Y115.878 E0.09957
G1 X146.226 Y118.789 E0.12822
G1 X144.439 Y121.335 E0.11305
G1 X142.844 Y123.563 E0.09959
G1 X119.643 Y123.563 E0.84320
G1 X116.643 Y119.342 E0.18819
G1 X115.122 Y117.141 E0.09724
G1 X113.698 Y115.036 E0.09236
G1 X112.371 Y113.027 E0.08751
G1 X111.137 Y111.113 E0.08279
G1 X109.994 Y109.290 E0.07818
G1 X108.671 Y107.114 E0.09253
G1 X108.395 Y107.500 F9000.000
G1 F1200
G1 X101.559 Y107.500 E0.24841
G1 X101.559 Y106.054 E0.05255
G1 X107.531 Y106.054 E0.21704
G1 X105.943 Y103.145 E0.12046
G1 X104.934 Y101.169 E0.08063
G1 X104.114 Y99.423 E0.07012
G1 X103.405 Y97.752 E0.06596
G1 X102.850 Y96.264 E0.05771
G1 X102.435 Y94.945 E0.05026
G1 X102.121 Y93.676 E0.04752
G1 X101.992 Y92.978 E0.02580
G1 X101.907 Y92.333 E0.02364
G1 X101.854 Y91.383 E0.03459
G1 X101.898 Y90.548 E0.03037
G1 X101.971 Y90.087 E0.01696
G1 X102.036 Y89.806 E0.01049
G1 X102.161 Y89.403 E0.01533
G1 X102.312 Y89.043 E0.01421
G1 X102.489 Y88.716 E0.01351
G1 X102.722 Y88.377 E0.01493
G1 X102.953 Y88.105 E0.01295
G1 X103.210 Y87.855 E0.01306
G1 X103.534 Y87.594 E0.01512
G1 X103.848 Y87.384 E0.01370
G1 X104.235 Y87.167 E0.01614
G1 X105.001 Y86.832 E0.03038
G1 X105.949 Y86.534 E0.03612
G1 X106.788 Y86.345 E0.03125
G1 X107.060 Y86.421 E0.01028
G1 X107.531 Y86.506 E0.01739
G1 X107.980 Y86.548 E0.01640
G1 X108.422 Y86.552 E0.01606
G1 X108.883 Y86.516 E0.01680
G1 X109.366 Y86.433 E0.01780
G1 X109.785 Y86.324 E0.01572
G1 X110.220 Y86.170 E0.01678
G1 X110.646 Y85.975 E0.01704
G1 X110.910 Y85.825 E0.01103
G1 X113.019 Y85.640 E0.07694
G1 X113.488 Y91.008 E0.19584
G1 X113.753 Y91.904 E0.03395
G1 X114.032 Y92.707 E0.03091
G1 X114.362 Y93.528 E0.03214
G1 X114.716 Y94.301 E0.03092
G1 X115.105 Y95.058 E0.03093
G1 X115.511 Y95.766 E0.02967
G1 X115.987 Y96.514 E0.03220
G1 X116.499 Y97.239 E0.03226
G1 X117.023 Y97.911 E0.03099
G1 X117.602 Y98.584 E0.03227
G1 X118.188 Y99.204 E0.03100
G1 X118.822 Y99.814 E0.03196
G1 X119.456 Y100.370 E0.03066
G1 X120.094 Y100.879 E0.02967
G1 X120.799 Y101.391 E0.03165
G1 X121.558 Y101.889 E0.03298
G1 X122.301 Y102.326 E0.03133
G1 X123.063 Y102.728 E0.03131
G1 X123.843 Y103.093 E0.03130
G1 X124.640 Y103.422 E0.03134
G1 X125.525 Y103.735 E0.03411
G1 X126.252 Y103.958 E0.02767
G1 X127.074 Y104.170 E0.03083
G1 X127.905 Y104.343 E0.03086
G1 X128.829 Y104.490 E0.03400
G1 X129.673 Y104.582 E0.03087
G1 X130.522 Y104.635 E0.03088
G1 X131.457 Y104.647 E0.03398
G1 X132.218 Y104.623 E0.02770
G1 X133.151 Y104.549 E0.03400
G1 X133.993 Y104.441 E0.03086
G1 X134.829 Y104.295 E0.03083
G1 X135.572 Y104.130 E0.02766
G1 X136.475 Y103.888 E0.03396
G1 X137.307 Y103.619 E0.03179
G1 X138.118 Y103.313 E0.03152
G1 X138.891 Y102.980 E0.03058
G1 X139.705 Y102.583 E0.03290
G1 X140.460 Y102.169 E0.03132
G1 X141.195 Y101.719 E0.03131
G1 X141.908 Y101.235 E0.03132
G1 X142.598 Y100.719 E0.03132
G1 X143.263 Y100.170 E0.03133
G1 X143.901 Y99.591 E0.03132
G1 X144.503 Y98.991 E0.03088
G1 X145.098 Y98.340 E0.03205
G1 X145.641 Y97.687 E0.03087
G1 X146.153 Y97.010 E0.03086
G1 X146.650 Y96.282 E0.03203
G1 X147.096 Y95.560 E0.03086
G1 X147.523 Y94.789 E0.03200
G1 X147.898 Y94.029 E0.03083
G1 X148.238 Y93.252 E0.03082
G1 X148.552 Y92.431 E0.03194
G1 X148.846 Y91.538 E0.03418
G1 X149.363 Y85.631 E0.21548
G1 X152.203 Y85.881 E0.10363
G1 X153.936 Y86.063 E0.06332
G1 X155.229 Y86.253 E0.04752
G1 X156.001 Y86.405 E0.02857
G1 X156.841 Y86.620 E0.03151
G1 X157.469 Y86.827 E0.02403
G1 X157.771 Y86.946 E0.01180
G1 X158.425 Y87.262 E0.02641
G1 X158.947 Y87.594 E0.02250
G1 X159.411 Y87.983 E0.02198
G1 X159.786 Y88.408 E0.02062
G1 X159.953 Y88.648 E0.01062
G1 X160.235 Y89.182 E0.02194
G1 X160.370 Y89.541 E0.01395
G1 X160.464 Y89.867 E0.01233
G1 X160.538 Y90.221 E0.01315
G1 X160.591 Y90.595 E0.01373
G1 X160.630 Y91.429 E0.03033
G1 X160.570 Y92.406 E0.03558
G1 X160.496 Y92.955 E0.02014
G1 X160.256 Y94.153 E0.04442
G1 X159.902 Y95.441 E0.04854
G1 X159.395 Y96.933 E0.05728
G1 X158.916 Y98.155 E0.04768
G1 X158.177 Y99.849 E0.06718
G1 X157.493 Y101.284 E0.05777
G1 X156.484 Y103.252 E0.08039
G1 X155.579 Y104.911 E0.06865
G1 X154.278 Y107.176 E0.09494
G1 X153.129 Y109.085 E0.08100
G1 X151.509 Y111.672 E0.11093
G1 X150.104 Y113.839 E0.09382
G1 X148.582 Y116.123 E0.09977
G1 X146.585 Y119.038 E0.12841
G1 X144.796 Y121.588 E0.11321
G1 X143.068 Y124.000 E0.10783
G1 X119.417 Y124.000 E0.85956
G1 X116.285 Y119.593 E0.19649
G1 X114.761 Y117.388 E0.09742
G1 X113.335 Y115.279 E0.09252
G1 X112.005 Y113.266 E0.08769
G1 X110.768 Y111.347 E0.08298
G1 X109.622 Y109.519 E0.07839
G1 X108.426 Y107.551 E0.08371
G1 X108.149 Y107.937 F9000.000
G1 F1200
G1 X101.122 Y107.937 E0.25536
G1 X101.122 Y105.617 E0.08432
G1 X106.795 Y105.617 E0.20615
G1 X105.557 Y103.349 E0.09391
G1 X104.542 Y101.361 E0.08111
G1 X103.715 Y99.601 E0.07068
G1 X102.998 Y97.914 E0.06662
G1 X102.437 Y96.406 E0.05848
G1 X102.014 Y95.063 E0.05117
G1 X101.693 Y93.768 E0.04848
G1 X101.560 Y93.046 E0.02669
G1 X101.471 Y92.374 E0.02465
G1 X101.416 Y91.383 E0.03605
G1 X101.463 Y90.503 E0.03205
G1 X101.541 Y90.004 E0.01836
G1 X101.614 Y89.692 E0.01165
G1 X101.750 Y89.253 E0.01668
G1 X101.918 Y88.853 E0.01576
G1 X102.116 Y88.487 E0.01513
G1 X102.374 Y88.111 E0.01658
G1 X102.633 Y87.806 E0.01454
G1 X102.921 Y87.527 E0.01456
G1 X103.275 Y87.242 E0.01655
G1 X103.619 Y87.012 E0.01502
G1 X104.034 Y86.779 E0.01731
G1 X104.847 Y86.423 E0.03227
G1 X105.333 Y86.256 E0.01866
G1 X105.840 Y86.111 E0.01918
G1 X106.799 Y85.894 E0.03571
G1 X107.158 Y85.994 E0.01355
G1 X107.590 Y86.073 E0.01597
G1 X108.002 Y86.111 E0.01503
G1 X108.407 Y86.114 E0.01471
G1 X108.829 Y86.081 E0.01540
G1 X109.274 Y86.005 E0.01640
G1 X109.657 Y85.906 E0.01436
G1 X110.056 Y85.765 E0.01539
G1 X110.447 Y85.586 E0.01562
G1 X110.776 Y85.398 E0.01380
G1 X113.416 Y85.167 E0.09631
G1 X113.920 Y90.926 E0.21013
G1 X114.170 Y91.770 E0.03198
G1 X114.442 Y92.554 E0.03016
G1 X114.764 Y93.355 E0.03139
G1 X115.109 Y94.111 E0.03018
G1 X115.489 Y94.849 E0.03019
G1 X115.885 Y95.540 E0.02894
G1 X116.350 Y96.270 E0.03146
G1 X116.850 Y96.978 E0.03150
G1 X117.362 Y97.634 E0.03023
G1 X117.927 Y98.292 E0.03152
G1 X118.499 Y98.897 E0.03024
G1 X119.118 Y99.492 E0.03122
G1 X119.737 Y100.035 E0.02993
G1 X120.359 Y100.532 E0.02894
G1 X121.047 Y101.032 E0.03090
G1 X121.788 Y101.518 E0.03221
G1 X122.513 Y101.944 E0.03058
G1 X123.257 Y102.336 E0.03056
G1 X124.019 Y102.693 E0.03055
G1 X124.796 Y103.013 E0.03056
G1 X125.662 Y103.320 E0.03337
G1 X126.371 Y103.537 E0.02696
G1 X127.173 Y103.744 E0.03010
G1 X127.984 Y103.913 E0.03011
G1 X128.887 Y104.056 E0.03323
G1 X129.711 Y104.146 E0.03011
G1 X130.538 Y104.198 E0.03012
G1 X131.452 Y104.209 E0.03324
G1 X132.194 Y104.186 E0.02698
G1 X133.106 Y104.114 E0.03324
G1 X133.928 Y104.009 E0.03011
G1 X134.744 Y103.866 E0.03010
G1 X135.468 Y103.705 E0.02696
G1 X136.351 Y103.469 E0.03322
G1 X137.163 Y103.206 E0.03101
G1 X137.955 Y102.908 E0.03077
G1 X138.709 Y102.583 E0.02983
G1 X139.504 Y102.195 E0.03215
G1 X140.241 Y101.790 E0.03057
G1 X140.958 Y101.351 E0.03057
G1 X141.654 Y100.879 E0.03057
G1 X142.328 Y100.375 E0.03058
G1 X142.977 Y99.839 E0.03058
G1 X143.600 Y99.274 E0.03058
G1 X144.188 Y98.689 E0.03013
G1 X144.769 Y98.053 E0.03130
G1 X145.298 Y97.416 E0.03012
G1 X145.798 Y96.754 E0.03012
G1 X146.284 Y96.044 E0.03128
G1 X146.719 Y95.339 E0.03011
G1 X147.135 Y94.587 E0.03125
G1 X147.502 Y93.844 E0.03008
G1 X147.833 Y93.086 E0.03008
G1 X148.140 Y92.285 E0.03119
G1 X148.415 Y91.449 E0.03196
G1 X148.965 Y85.158 E0.22953
G1 X152.245 Y85.446 E0.11965
G1 X153.990 Y85.629 E0.06378
G1 X155.304 Y85.822 E0.04823
G1 X156.097 Y85.978 E0.02940
G1 X156.963 Y86.200 E0.03249
G1 X157.617 Y86.415 E0.02503
G1 X157.946 Y86.545 E0.01284
G1 X158.638 Y86.879 E0.02792
G1 X159.206 Y87.241 E0.02448
G1 X159.710 Y87.663 E0.02389
G1 X160.136 Y88.144 E0.02335
G1 X160.322 Y88.413 E0.01190
G1 X160.490 Y88.702 E0.01212
G1 X160.637 Y89.010 E0.01243
G1 X160.785 Y89.404 E0.01528
G1 X160.888 Y89.762 E0.01354
G1 X160.969 Y90.145 E0.01425
G1 X161.026 Y90.548 E0.01476
G1 X161.059 Y90.976 E0.01562
G1 X161.068 Y91.432 E0.01658
G1 X161.051 Y91.917 E0.01761
G1 X161.004 Y92.454 E0.01959
G1 X160.928 Y93.023 E0.02087
G1 X160.820 Y93.625 E0.02222
G1 X160.681 Y94.258 E0.02359
G1 X160.320 Y95.570 E0.04942
G1 X159.805 Y97.083 E0.05811
G1 X159.320 Y98.322 E0.04834
G1 X158.575 Y100.030 E0.06774
G1 X157.885 Y101.478 E0.05827
G1 X156.870 Y103.457 E0.08082
G1 X155.961 Y105.124 E0.06903
G1 X154.654 Y107.397 E0.09528
G1 X153.501 Y109.314 E0.08130
G1 X151.877 Y111.907 E0.11120
G1 X150.470 Y114.079 E0.09405
G1 X148.944 Y116.368 E0.09997
G1 X146.944 Y119.287 E0.12861
G1 X145.152 Y121.841 E0.11338
G1 X143.293 Y124.437 E0.11607
G1 X119.192 Y124.437 E0.87592
G1 X115.927 Y119.844 E0.20480
G1 X114.401 Y117.634 E0.09761
G1 X112.972 Y115.522 E0.09268
G1 X111.639 Y113.505 E0.08787
G1 X110.399 Y111.582 E0.08317
G1 X109.250 Y109.749 E0.07860
G1 X108.180 Y107.988 E0.07488
G1 X108.075 Y107.544 F9000.000
G1 F7200
G1 X105.437 Y107.968 E-0.76000
G1 E-0.04000 F2100.00000
G1 Z0.800 F9000.000
G1 X109.148 Y107.603
G1 Z0.200
G1 E0.80000 F1500.00000
G1 F1200
G1 X124.955 Y123.410 E0.81430
G1 X124.335 Y123.410 F9000.000
G1 F1200
G1 X110.108 Y109.183 E0.73290
G1 F7200
G1 X112.048 Y111.123 E-0.76000
G1 E-0.04000 F2100.00000
G1 Z0.800 F9000.000
G1 X111.147 Y110.842
G1 Z0.200
G1 E0.80000 F1500.00000
G1 F1200
G1 X123.716 Y123.410 E0.64746
G1 X123.096 Y123.410 F9000.000
